static/fa/svgs/solid/car-side.svg

<svg xmlns="http://www.w3.org/2000/svg" viewBox="0 0 640 512"><!--! Font Awesome Free 6.1.1 by @fontawesome - https://fontawesome.com License - https://fontawesome.com/license/free (Icons: CC BY 4.0, Fonts: SIL OFL 1.1, Code: MIT License) Copyright 2022 Fonticons, Inc.--><path d="M640 320v48c0 17.7-14.3 32-32 32h-33.3c-7.6 45.4-47.1 80-94.7 80s-87.1-34.6-94.7-80H254.7c-7.6 45.4-47.1 80-94.7 80s-87.06-34.6-94.67-80H32c-17.67 0-32-14.3-32-32V256c0-27.1 16.81-50.2 40.56-59.6L82.2 92.35C96.78 55.9 132.1 32 171.3 32h181.9c29.2 0 55.9 13.26 75 36.03L528.2 193c63 7.1 111.8 61.8 111.8 126.1v.9zM171.3 96c-13.1 0-24.8 7.1-29.7 20.1L111.3 192H224V96h-52.7zM272 192h173.4l-67.2-84c-6-7.6-16.1-12-25-12H272v96zm253.3 208c1.7-5.9 2.7-10.4 2.7-16 0-26.5-21.5-48-48-48s-48 21.5-48 48c0 5.6.1 10.1 2.7 16 6.6 18.6 24.4 32 45.3 32s38.7-13.4 45.3-32zm-320 0c1.7-5.9 2.7-10.4 2.7-16 0-26.5-21.5-48-48-48s-48 21.5-48 48c0 5.6.1 10.1 2.7 16 6.6 18.6 24.4 32 45.3 32s38.7-13.4 45.3-32z"/></svg>

<svg xmlns="http://www.w3.org/2000/svg" viewBox="0 0 640 512"><!--! Font Awesome Free 6.1.1 by @fontawesome - https://fontawesome.com License - https://fontawesome.com/license/free (Icons: CC BY 4.0, Fonts: SIL OFL 1.1, Code: MIT License) Copyright 2022 Fonticons, Inc. --><path d="M640 320V368C640 385.7 625.7 400 608 400H574.7C567.1 445.4 527.6 480 480 480C432.4 480 392.9 445.4 385.3 400H254.7C247.1 445.4 207.6 480 160 480C112.4 480 72.94 445.4 65.33 400H32C14.33 400 0 385.7 0 368V256C0 228.9 16.81 205.8 40.56 196.4L82.2 92.35C96.78 55.9 132.1 32 171.3 32H353.2C382.4 32 409.1 45.26 428.2 68.03L528.2 193C591.2 200.1 640 254.8 640 319.1V320zM171.3 96C158.2 96 146.5 103.1 141.6 116.1L111.3 192H224V96H171.3zM272 192H445.4L378.2 108C372.2 100.4 362.1 96 353.2 96H272V192zM525.3 400C527 394.1 528 389.6 528 384C528 357.5 506.5 336 480 336C453.5 336 432 357.5 432 384C432 389.6 432.1 394.1 434.7 400C441.3 418.6 459.1 432 480 432C500.9 432 518.7 418.6 525.3 400zM205.3 400C207 394.1 208 389.6 208 384C208 357.5 186.5 336 160 336C133.5 336 112 357.5 112 384C112 389.6 112.1 394.1 114.7 400C121.3 418.6 139.1 432 160 432C180.9 432 198.7 418.6 205.3 400z"/></svg>
